X:1
T:Title
%%score { ( 1 3 ) | 2 }
L:1/8
M:4/4
K:G
V:1 treble nm="Grand Piano"
V:3 treble 
V:2 treble 
V:1
 z4 z2[Q:1/4=100] DE | G2 BA G2 DE | [EG]2 EG D2 DE | G2 [GB][FA] G2 GB |[M:3/4] [Fd]6 | %5
[M:1/4] [Fd][Fe] |[M:4/4] B2 AG B2 DE | G2 GA G2 Bd | [DB]2 [DA][DG] E2 AA |[M:3/4] [B,G]6 | %10
[M:1/4] [B,D][CE] |[M:4/4] [DG]6 z2 | [B,D]6 z2 | B6 z2 |[M:3/4] [Fd]6 |[M:1/4] [Fd][Fe] | %16
[M:4/4] B2 AG B2 DE | G2 GA G2 Bd | [DB]2 [DA][DG] E2 AA |[M:7/4] [B,G]6 z2 z2 z4 |] %20
V:2
 z4 z2 [G,B,][G,C] | [G,B,D]2 [G,DG][G,CF][K:bass] [G,B,]2 [G,B,][G,C] | %2
 [C,G,]2 [C,G,C][E,G,C] [G,B,]2 [G,B,][G,C] | [G,B,D]2 [D,D][^D,C] [E,B,]2 [E,B,E][E,G,E] | %4
[M:3/4] [D,A,]6 |[M:1/4] [D,A,][D,D] |[M:4/4][K:treble] [G,DG]2 [G,CF][G,B,] [G,DG]2 [G,B,][G,C] | %7
 [G,B,D]2 [G,B,D][G,CD] [G,B,D]2 [G,DG][G,B,G] | [G,,G,]2 [A,,F,][B,,G,] [C,G,C]2 [D,F,C][D,F,C] | %9
[M:3/4] [G,,G,]6 |[M:1/4] [G,,G,][G,,G,] |[M:4/4] G,,2 G,,G,, B,,2 C,E, | %12
 G,2 D,B,, G,,2 B,,[D,F,D] | [G,D]2 [E,G,][E,G,] G,2 [F,D][E,^CD] |[M:3/4] [D,D]2 D,D, D,2 | %15
[M:1/4] [D,A,][D,D] |[M:4/4][K:treble] [G,DG]2 [G,CF][G,B,] [G,DG]2 [G,B,][G,C] | %17
 [G,B,D]2 [G,B,D][G,CD] [G,B,D]2 [G,DG][G,B,G] | [G,,G,]2 [A,,F,][B,,G,] [C,G,C]2 [D,F,C][D,F,C] | %19
[M:7/4] [G,,G,]6 z2 z2 z4 |] %20
V:3
 x8 | x8 | x8 | x8 |[M:3/4] x6 |[M:1/4] x2 |[M:4/4] x8 | x8 | x8 |[M:3/4] x6 |[M:1/4] x2 | %11
[M:4/4] B,2 B,B, G,2 [G,CE][G,CG] | z2 G,G, G,2 [G,DG]A | z2 EE D2 AG |[M:3/4] z2 DD D2 | %15
[M:1/4] x2 |[M:4/4] x8 | x8 | x8 |[M:7/4] x14 |] %20

